X:2565
T:Il est bien temps
M:2/4
O:France
R:Bourre
Z:Richard Robinson 
%%TUNEURL: http://www.leeds.ac.uk/music/Info/RRTuneBk/gettune/000006d4.html
%%ID:000006d4
K:G min
G4A2B2|A3G ^F2D2\
|1 G4A2B2|cdcB A2B2 :|2 G2AB A2G^F|G8::
G4A2B2|c2B2 A2B2\
|1d2dd ^c2B2|A2G2 ^F2D2:|2G2AB AG^F2|G8:|
